img/svg/landingsside/skilt.svg

<svg width="24" height="24" viewBox="0 0 24 24" xmlns="http://www.w3.org/2000/svg"><g stroke="#000" fill="none" fill-rule="evenodd" stroke-linecap="round" stroke-linejoin="round"><path d="M11.5 16.5v7m0-23v2m0 6v2M20.5 8.5h-17v-6h17l3 3-3 3zm-17 8h17v-6h-17l-3 3 3 3z"/></g></svg>

<?xml version="1.0" encoding="UTF-8"?>
<svg width="24px" height="24px" viewBox="0 0 24 24" version="1.1" xmlns="http://www.w3.org/2000/svg" xmlns:xlink="http://www.w3.org/1999/xlink">
    <!-- Generator: Sketch 48.1 (47250) - http://www.bohemiancoding.com/sketch -->
    <title>direction sign</title>
    <desc>Created with Sketch.</desc>
    <defs></defs>
    <g id="Din-arbeidssituasjon" stroke="none" stroke-width="1" fill="none" fill-rule="evenodd" transform="translate(-50.000000, -519.000000)" stroke-linecap="round" stroke-linejoin="round">
        <g id="direction-sign" transform="translate(50.000000, 519.000000)" stroke="#000000">
            <path d="M11.5,16.5 L11.5,23.5 M11.5,0.5 L11.5,2.5 M11.5,8.5 L11.5,10.5" id="Shape"></path>
            <path d="M20.5,8.5 L3.5,8.5 L3.5,2.5 L20.5,2.5 L23.5,5.5 L20.5,8.5 Z M3.5,16.5 L20.5,16.5 L20.5,10.5 L3.5,10.5 L0.5,13.5 L3.5,16.5 Z" id="Shape"></path>
        </g>
    </g>
</svg>
